!!! OTL: Berkowitz250
!!! Chapter: 1
!!! Section: II
!!! Page: 58
!!! Mode: 
!!! Encoder: DJB
**kern
*staff1
*I"Piano
=1-
*clefC3
*k[f#c#]
*b:
*M4/4
4r
4r
4r
4B/
=2
4b\
4a\
4g\
4f#\
=3
[2e#\
8e#\L]
8f#\
8c#\
8d\J
=4
2e#\
4d\
4B/
=5
4g\
4f#\
4e\
4d#\
=6
4e\
8r
8g\
4f#\
8r
8A#/
=7
[2c#\
8c#\L]
8e\
8d\
8c#\J
=8
2B/
2r
==
*-
